Numix-GalliumOS/48/status/stock_signature-bad.svg

<?xml version="1.0" encoding="UTF-8" standalone="no"?>
<!-- Created with Inkscape (http://www.inkscape.org/) -->

<svg
   xmlns:dc="http://purl.org/dc/elements/1.1/"
   xmlns:cc="http://creativecommons.org/ns#"
   xmlns:rdf="http://www.w3.org/1999/02/22-rdf-syntax-ns#"
   xmlns:svg="http://www.w3.org/2000/svg"
   xmlns="http://www.w3.org/2000/svg"
   xmlns:sodipodi="http://sodipodi.sourceforge.net/DTD/sodipodi-0.dtd"
   xmlns:inkscape="http://www.inkscape.org/namespaces/inkscape"
   width="48"
   height="48"
   id="svg1307"
   sodipodi:version="0.32"
   inkscape:version="0.91 r"
   version="1.0"
   sodipodi:docname="stock_signature-bad.svg"
   inkscape:export-filename="/home/pinheiro/Documents/pics/new oxygen/svg/pen.png"
   inkscape:export-xdpi="90"
   inkscape:export-ydpi="90"
   inkscape:output_extension="org.inkscape.output.svgz.inkscape">
  <defs
     id="defs1309">
    <clipPath
       id="clipPath-408241621">
      <g
         transform="translate(0,-1004.3622)"
         id="g3616">
        <path
           style="fill:#1890d0"
           inkscape:connector-curvature="0"
           d="m -24,13 c 0,1.105 -0.672,2 -1.5,2 -0.828,0 -1.5,-0.895 -1.5,-2 0,-1.105 0.672,-2 1.5,-2 0.828,0 1.5,0.895 1.5,2 z"
           transform="matrix(15.333333,0,0,11.5,414.99999,878.8622)"
           id="path3618" />
      </g>
    </clipPath>
    <clipPath
       id="clipPath-408241621-1">
      <g
         transform="translate(0,-1004.3622)"
         id="g3616-3">
        <path
           style="fill:#1890d0"
           inkscape:connector-curvature="0"
           d="m -24,13 c 0,1.105 -0.672,2 -1.5,2 -0.828,0 -1.5,-0.895 -1.5,-2 0,-1.105 0.672,-2 1.5,-2 0.828,0 1.5,0.895 1.5,2 z"
           transform="matrix(15.333333,0,0,11.5,414.99999,878.8622)"
           id="path3618-3" />
      </g>
    </clipPath>
  </defs>
  <sodipodi:namedview
     id="base"
     pagecolor="#ffffff"
     bordercolor="#666666"
     borderopacity="1.0"
     inkscape:pageopacity="0.0"
     inkscape:pageshadow="2"
     inkscape:zoom="13.600655"
     inkscape:cx="23.561797"
     inkscape:cy="26.416592"
     inkscape:current-layer="layer1"
     showgrid="true"
     inkscape:document-units="px"
     inkscape:grid-bbox="true"
     guidetolerance="0.1px"
     showguides="true"
     inkscape:guide-bbox="true"
     inkscape:window-width="1920"
     inkscape:window-height="1056"
     inkscape:window-x="0"
     inkscape:window-y="24"
     inkscape:window-maximized="1">
    <inkscape:grid
       type="xygrid"
       id="grid4154" />
  </sodipodi:namedview>
  <metadata
     id="metadata1312">
    <rdf:RDF>
      <cc:Work
         rdf:about="">
        <dc:format>image/svg+xml</dc:format>
        <dc:type
           rdf:resource="http://purl.org/dc/dcmitype/StillImage" />
        <cc:license
           rdf:resource="http://creativecommons.org/licenses/GPL/2.0/" />
        <dc:contributor>
          <cc:Agent>
            <dc:title>Oxygen team</dc:title>
          </cc:Agent>
        </dc:contributor>
        <dc:title />
      </cc:Work>
      <cc:License
         rdf:about="http://creativecommons.org/licenses/LGPL/2.1/">
        <cc:permits
           rdf:resource="http://web.resource.org/cc/Reproduction" />
        <cc:permits
           rdf:resource="http://web.resource.org/cc/Distribution" />
        <cc:requires
           rdf:resource="http://web.resource.org/cc/Notice" />
        <cc:permits
           rdf:resource="http://web.resource.org/cc/DerivativeWorks" />
        <cc:requires
           rdf:resource="http://web.resource.org/cc/ShareAlike" />
        <cc:requires
           rdf:resource="http://web.resource.org/cc/SourceCode" />
      </cc:License>
    </rdf:RDF>
  </metadata>
  <g
     id="layer1"
     inkscape:label="Layer 1"
     inkscape:groupmode="layer"
     transform="translate(0,-80)">
    <path
       style="fill:#3370d0;fill-opacity:1;fill-rule:evenodd;stroke:none;stroke-width:1px;stroke-linecap:butt;stroke-linejoin:miter;stroke-opacity:1"
       d="M 25.865234 9.5 C 24.60303 9.5029 23.202522 9.6043154 21.662109 9.8027344 C 19.92486 10.02653 17.994356 10.368138 15.871094 10.828125 C 13.972997 11.263271 12.17184 11.741525 10.466797 12.263672 C 8.7939028 12.773413 7.2014774 13.346427 5.6894531 13.980469 C 2.6653847 15.223718 1.1043221 16.243398 1.0078125 17.039062 C 0.9112957 17.859604 1.6354836 18.325607 3.1796875 18.4375 C 3.9839542 18.49971 4.9501858 18.460991 6.0761719 18.324219 C 6.4622167 18.286939 8.4765592 18.025098 8.4765625 17.962891 C 8.4765556 17.888321 8.4768283 17.963719 7.0195312 17.410156 C 6.5001466 17.212864 6.3997632 17.223718 6.1054688 17.089844 C 5.9497903 17.019024 5.7466327 16.983816 5.6582031 16.835938 C 5.6153671 16.764308 5.5556685 16.683597 5.6523438 16.583984 C 6.3889448 15.824999 10.991664 14.30175 12.007812 14.007812 C 13.712856 13.51053 13.775952 13.5147 15.802734 13.054688 C 19.824076 12.184436 21.989167 11.643641 24.208984 11.693359 C 26.557428 11.767969 27.212861 11.755232 27.212891 12.787109 C 27.141321 13.297597 26.902833 13.534196 26.660156 13.857422 C 25.27678 15.548234 21.723754 17.548533 13.90625 22.521484 C 13.84189 22.583684 13.779171 22.639733 13.714844 22.689453 C 13.682654 22.726753 13.666006 22.763521 13.666016 22.800781 C 13.666001 22.937531 17.722387 23.75 18.140625 23.75 C 18.591002 23.74999 18.991806 23.650052 19.345703 23.451172 C 19.828249 23.140372 20.504414 22.754922 21.373047 22.294922 C 22.273811 21.834932 22.76105 21.544917 24.080078 20.898438 C 25.656428 20.127628 27.232194 19.407681 28.808594 18.736328 C 30.384938 18.064993 31.99402 17.423647 33.634766 16.814453 C 37.688265 15.359874 38.125043 15.260992 39.927734 14.878906 C 40.826042 14.688507 40.908024 14.673838 41.390625 14.673828 C 42.13051 14.673838 42.386766 14.68446 42.5 15.064453 C 42.5846 15.348369 42.322586 15.512367 41.96875 15.773438 C 41.96875 15.773438 38.079677 18.265572 36.234375 19.654297 C 36.082247 19.768785 35.936398 19.891466 35.787109 20.009766 L 37.214844 21.4375 C 37.387462 21.295204 37.557831 21.149577 37.732422 21.009766 C 38.456748 20.429726 39.203626 19.880981 39.951172 19.332031 C 41.081919 18.501669 42.221617 17.68861 43.376953 16.888672 C 44.537934 16.084826 45.994047 15.565921 46.851562 14.427734 C 46.938522 14.312305 46.98525 14.162378 46.996094 14.017578 C 47.008864 13.847083 46.985991 13.661025 46.900391 13.513672 C 46.729889 13.220172 46.423022 13.020331 46.128906 12.855469 C 45.818338 12.681387 45.464928 12.586899 45.115234 12.525391 C 44.73467 12.458451 44.407381 12.451001 43.957031 12.488281 C 41.125948 12.662347 37.104225 13.736151 31.892578 15.712891 C 29.962294 16.433975 28.192501 17.131392 26.583984 17.802734 C 25.007584 18.474089 23.561171 19.13281 22.242188 19.779297 C 21.952627 19.978217 21.693925 20.078125 21.46875 20.078125 C 21.340045 20.078125 21.27537 20.053706 21.275391 20.003906 C 21.27537 19.916906 21.388064 19.804719 21.613281 19.667969 C 24.18693 18.002023 26.198767 16.596912 27.646484 15.453125 C 29.126316 14.296923 30.090593 13.382296 30.541016 12.710938 C 30.701839 12.425005 30.783172 12.139469 30.783203 11.853516 C 30.783171 11.194613 30.411775 10.665427 29.671875 10.267578 C 28.867574 9.7827261 27.759243 9.5287822 26.34375 9.5039062 C 26.18704 9.5011063 26.026485 9.4995 25.865234 9.5 z M 27.996094 27.775391 C 27.728179 28.08175 27.414578 28.422554 27.169922 28.710938 C 26.526475 29.481737 25.996319 30.147571 25.578125 30.707031 C 25.213412 31.247271 25.005898 31.620705 24.957031 31.828125 C 23.238324 32.675615 19.820356 34.1132 16.1875 38.5 C 22.317333 35.68114 22.507113 35.232455 25.835938 33.703125 C 26.364308 34.182265 26.362434 34.180621 26.365234 34.181641 C 26.7682 34.485889 27.246278 34.557053 27.722656 34.572266 L 27.615234 34.464844 L 29.611328 32.46875 C 29.292601 32.505196 28.975568 32.529605 28.660156 32.535156 C 28.244118 32.535146 27.995786 32.413562 27.916016 32.169922 C 29.018555 31.680117 30.054687 31.25103 31.0625 30.841797 L 30.242188 30.021484 C 29.43139 30.37396 28.620249 30.740115 27.816406 31.136719 C 27.834346 30.945499 27.921564 30.709494 28.080078 30.427734 C 28.346621 30.006314 28.734478 29.504245 29.183594 28.962891 L 27.996094 27.775391 z "
       transform="translate(0,80)"
       id="path4759" />
    <path
       sodipodi:nodetypes="ccc"
       id="path1987"
       d="m -21.591741,-220.6239 0,-2.79471 0,2.79471 z"
       style="fill:#ffffff;fill-opacity:0.75688076;fill-rule:nonzero;stroke:none;stroke-width:0.5;stroke-linecap:round;stroke-linejoin:round;stroke-miterlimit:4;stroke-dasharray:none;stroke-dashoffset:4;stroke-opacity:1"
       inkscape:connector-curvature="0" />
    <path
       sodipodi:nodetypes="ccc"
       id="path1747"
       d="m 26.204559,-335.9479 0,-2.79471 0,2.79471 z"
       style="fill:#ffffff;fill-opacity:0.75688076;fill-rule:nonzero;stroke:none;stroke-width:0.5;stroke-linecap:round;stroke-linejoin:round;stroke-miterlimit:4;stroke-dasharray:none;stroke-dashoffset:4;stroke-opacity:1"
       inkscape:connector-curvature="0" />
    <rect
       style="opacity:0.57786889;fill:#ffffff;fill-opacity:1;fill-rule:nonzero;stroke:none;stroke-width:3.63199997;stroke-linecap:round;stroke-linejoin:round;stroke-miterlimit:4;stroke-dasharray:none;stroke-dashoffset:4;stroke-opacity:1"
       id="rect1327"
       width="1"
       height="0"
       x="15.057414"
       y="-308.20486" />
    <g
       id="g4150"
       transform="translate(0.857,72.428906)">
      <path
         sodipodi:nodetypes="ccccccccccccc"
         inkscape:connector-curvature="0"
         id="path4-3"
         d="M 41.60683,31.428958 38.071296,34.964492 34.535967,31.429162 31,34.964312 l 3.535636,3.535635 -3.535305,3.535715 3.535432,3.535432 3.535305,-3.535715 3.535585,3.535585 3.535864,-3.535252 -3.535585,-3.535584 3.535636,-3.535432 z"
         style="fill:#ee545b;fill-opacity:1" />
    </g>
    <g
       id="g4150-1"
       transform="translate(0.857,72.428906)"
       style="stroke:#000000;stroke-opacity:1;stroke-width:6;stroke-miterlimit:4;stroke-dasharray:none" />
  </g>
</svg>

<svg xmlns="http://www.w3.org/2000/svg" viewBox="0 0 48 48">
 <g transform="translate(0,-80)">
  <path d="m 25.865 9.5 c -1.262 0.003 -2.663 0.104 -4.203 0.303 c -1.737 0.224 -3.668 0.565 -5.791 1.025 c -1.898 0.435 -3.699 0.913 -5.404 1.436 c -1.673 0.51 -3.265 1.083 -4.777 1.717 c -3.02 1.243 -4.585 2.263 -4.682 3.059 c -0.097 0.821 0.628 1.287 2.172 1.398 c 0.804 0.062 1.77 0.023 2.896 -0.113 c 0.386 -0.037 2.4 -0.299 2.4 -0.361 c 0 -0.075 0 0.001 -1.457 -0.553 c -0.519 -0.197 -0.62 -0.186 -0.914 -0.32 c -0.156 -0.071 -0.359 -0.106 -0.447 -0.254 c -0.043 -0.072 -0.103 -0.152 -0.006 -0.252 c 0.737 -0.759 5.339 -2.282 6.355 -2.576 c 1.705 -0.497 1.768 -0.493 3.795 -0.953 c 4.02 -0.87 6.186 -1.411 8.406 -1.361 c 2.348 0.075 3 0.062 3 1.094 c -0.072 0.51 -0.31 0.747 -0.553 1.07 c -1.383 1.691 -4.936 3.691 -12.754 8.664 c -0.064 0.062 -0.127 0.118 -0.191 0.168 c -0.032 0.037 -0.049 0.074 -0.049 0.111 c 0 0.137 4.056 0.949 4.475 0.949 c 0.45 0 0.851 -0.1 1.205 -0.299 c 0.483 -0.311 1.159 -0.696 2.027 -1.156 c 0.901 -0.46 1.388 -0.75 2.707 -1.396 c 1.576 -0.771 3.152 -1.491 4.729 -2.162 c 1.576 -0.671 3.185 -1.313 4.826 -1.922 c 4.053 -1.455 4.49 -1.553 6.293 -1.936 c 0.898 -0.19 0.98 -0.205 1.463 -0.205 c 0.74 0 0.996 0.011 1.109 0.391 c 0.085 0.284 -0.177 0.448 -0.531 0.709 c 0 0 -3.889 2.492 -5.734 3.881 c -0.152 0.114 -0.298 0.237 -0.447 0.355 l 1.428 1.428 c 0.173 -0.142 0.343 -0.288 0.518 -0.428 c 0.724 -0.58 1.471 -1.129 2.219 -1.678 c 1.131 -0.83 2.27 -1.643 3.426 -2.443 c 1.161 -0.804 2.617 -1.323 3.475 -2.461 c 0.087 -0.115 0.134 -0.265 0.145 -0.41 c 0.013 -0.17 -0.01 -0.357 -0.096 -0.504 c -0.171 -0.293 -0.477 -0.493 -0.771 -0.658 c -0.311 -0.174 -0.664 -0.269 -1.014 -0.33 c -0.381 -0.067 -0.708 -0.074 -1.158 -0.037 c -2.831 0.174 -6.853 1.248 -12.06 3.225 c -1.93 0.721 -3.7 1.419 -5.309 2.09 c -1.576 0.671 -3.02 1.33 -4.342 1.977 c -0.29 0.199 -0.548 0.299 -0.773 0.299 c -0.129 0 -0.193 -0.024 -0.193 -0.074 c 0 -0.087 0.113 -0.199 0.338 -0.336 c 2.574 -1.666 4.585 -3.071 6.03 -4.215 c 1.48 -1.156 2.444 -2.071 2.895 -2.742 c 0.161 -0.286 0.242 -0.571 0.242 -0.857 c 0 -0.659 -0.371 -1.188 -1.111 -1.586 c -0.804 -0.485 -1.913 -0.739 -3.328 -0.764 c -0.157 -0.003 -0.317 -0.004 -0.479 -0.004 z m 2.131 18.275 c -0.268 0.306 -0.582 0.647 -0.826 0.936 c -0.643 0.771 -1.174 1.437 -1.592 1.996 c -0.365 0.54 -0.572 0.914 -0.621 1.121 c -1.719 0.847 -5.137 2.285 -8.77 6.672 c 6.13 -2.819 6.32 -3.268 9.648 -4.797 c 0.528 0.479 0.526 0.477 0.529 0.479 c 0.403 0.304 0.881 0.375 1.357 0.391 l -0.107 -0.107 l 1.996 -1.996 c -0.319 0.036 -0.636 0.061 -0.951 0.066 c -0.416 0 -0.664 -0.122 -0.744 -0.365 c 1.103 -0.49 2.139 -0.919 3.146 -1.328 l -0.82 -0.82 c -0.811 0.352 -1.622 0.719 -2.426 1.115 c 0.018 -0.191 0.105 -0.427 0.264 -0.709 c 0.267 -0.421 0.654 -0.923 1.104 -1.465 l -1.188 -1.188 z" transform="translate(0,80)" style="fill:#3370d0;fill-opacity:1;stroke:none;fill-rule:evenodd"/>
  <g transform="translate(0.857,72.428906)">
   <path d="m 41.607 31.429 -3.536 3.536 -3.535 -3.535 -3.536 3.535 l 3.536 3.536 -3.535 3.536 3.535 3.535 3.535 -3.536 3.536 3.536 3.536 -3.535 -3.536 -3.536 3.536 -3.535 z" style="fill:#ee545b;fill-opacity:1"/>
  </g>
 </g>
</svg>
